X: 4458
T: Bonnie Kate
R: reel
M: 4/4
K: Dmajor
dB|AGFA BdAF|GBAG FE~E2|FGAF GABd|gfec dcdB|
AF(3FFF BFAF|GBAG FE~E2|FGAF GABd|gfec defg|
|:a^gab afdf|bagf e^def|gBgf gbag|1 fgef defg:|2 fgef dcdB||
|:ad(3ddd adbd|ad(3ddd cdef|g=c(3ccc gbag|1 fgef defg:|2 fgef dcdB||

